Assets/ico-home.svg

<svg width="24" height="24" viewBox="0 0 24 24" fill="none" xmlns="http://www.w3.org/2000/svg">
<path d="M11.3861 1.21065C11.7472 0.929784 12.2528 0.929784 12.6139 1.21065L21.6139 8.21065C21.8575 8.4001 22 8.69141 22 9V20.5C22 21.3284 21.3284 22 20.5 22H15V14C15 13.4477 14.5523 13 14 13H10C9.44772 13 9 13.4477 9 14V22H3.5C2.67157 22 2 21.3284 2 20.5V9C2 8.69141 2.14247 8.4001 2.38606 8.21065L11.3861 1.21065Z" fill="#61666D"/>
</svg>

<svg xmlns="http://www.w3.org/2000/svg" width="24" height="24" fill="none" viewBox="0 0 24 24"><path fill="#61666d" d="M11.386 1.21a1 1 0 0 1 1.228 0l9 7A1 1 0 0 1 22 9v11.5a1.5 1.5 0 0 1-1.5 1.5H15v-8a1 1 0 0 0-1-1h-4a1 1 0 0 0-1 1v8H3.5A1.5 1.5 0 0 1 2 20.5V9a1 1 0 0 1 .386-.79z"/></svg>
